X:1
T:Long Ago
T:W. A. Post
T:Long Ago
T:Public Domain
T:Public Domain
T:Public Domain
C:W. A. Post
Z:Public Domain
%%score ( 1 2 ) ( 3 4 )
L:1/8
M:6/8
K:F
V:1 treble 
V:2 treble 
V:3 bass 
V:4 bass 
V:1
 ([FA][GB])[Ac] C2 [FA] | [EG]3 F3 | (FA)[Ac] [^Ge]2 [Gd] | [Ac]3- [Ac]2 z | %4
w: 1.~Night * had fall- en|ly Over|de- * a’s hill; Shep-|watched *|
w: 2.~Shep- * herds of Ju-|a, Watch-|flocks * by night; Pa-|gen- *|
w: 3.~Hosts * of shin- ing|gels Joined|her- * ald bright; Le-|from *|
 [GB]2 [EB] [FA]2 [FA] | [EG]3 [DF]3 | ([=B,D][CE])[DF] [FA]2 [FA] | [EG]3- [EG]2 z | %8
w: in si- lence, All|the flocks|were * still; Light dis-|pelled *|
w: tle watch- ers Trem-|bled at|the * light, Trem- bled|when *|
w: the glo- ry, Came|that won-|drous * night— Came with|al- *|
 ([FA][GB])[Ac] C2 [FA] | [EG]3 F3 | (FA)[Ac] [F_e]2 [Fe] | [Fd]3- [Fd]2 z | %12
w: the * dark- ness, Light,|day more|Lo! * a might- y|gel, *|
w: the * glo- ry O’er|hill- side|Trem- * bled till the|gel *|
w: le- * lu- ias, For|Sav- ior|Came * to tell the|y *|
 [Fd]2 [Fd] [EG]2 [EG] | [Fc]3 [FA]3 | (G[^FA])[GB] [=FA]2 [EG] | F3- F2 z || %16
w: Stood in glo- ry|there. *|||
w: “Fear not,” sweet- ly|said. Long|a- * go, long a-|Came *|
w: Of re- demp- tion’s|morn. *|||
"^Refrain" (z [A,C])(c z) ([B,CE][B,CE]) | z [A,C](c z) ([B,CE][B,CE]) | %18
w: ||
w: * an- gel *|* “Fear ye *|
w: ||
 [A,CF][CFA][FAc] z ([F^G=B][FGBe]) | z [CFA][CFA] z [CFA][CFA] | z [FBd]([FBd] z) ([CFA][CFA]) | %21
w: |||
w: * * Fear ye *||* a- cross *|
w: |||
 z [CEG]([CEGc] z) ([CF][CF]) | (AG)[_B,F] [B,D]2 [B,A] | (z [Bg][G-e] c[DB][B,G]) | %24
w: |||
w: * night. Long *|long * a- go, Over||
w: |||
 (z [A,C])(c z) ([B,CE][B,CE]) | z [A,C](c z) ([B,CE][B,CE]) | [A,CF][CFA][FAc] [FAc_e]2 [FAce] | %27
w: |||
w: * of hay, *|* gels fair, *|* * the air, Watched|
w: |||
 [FBd]6 | (z [FBd])([FBd] z) ([CFA][CFA]) | z [CEG]([CEGc] z) ([CF][CF]) | %30
w: |||
w: where|* Je- sus *||
w: |||
 [DG][DA][DB] (z [B,CE])[B,CEG] | z [A,C][A,C] [A,C]3 |] %32
w: ||
w: ||
w: ||
V:2
 x3 C2 x | x3 F3 | F2 x4 | x6 | x6 | x6 | x6 | x6 | x3 C2 x | x3 F3 | F2 x4 | x6 | x6 | x6 | G x5 | %15
w: dark-|Ju-|herds||||||then|fair,|an-|||||
w: de-|ing|tient,||||||the|spread,|an-||||go,|
w: an-|the|gions||||||a|born;|wear-|||||
 F3- F2 x || F2 G3 x | F2 G3 x | x3 e2 x | c3- c3 | f2 c3 x | B2 A3 x | =B,2 x4 | %23
w: ||||||||
w: that *|bright, *|not! *|not!”|Rang *|the *|a- go,|a|
w: ||||||||
 ([B,-G]3 [B,G]3) | F2 G3 x | F2 G3 x | x6 | x6 | f2 c3 x | B2 A3 x | x3 A2 x | F6 |] %32
w: |||||||||
w: bed *|An- *|in *|||lay. *||||
w: |||||||||
V:3
 [F,C]2 [F,C] [F,A,]2 [F,C] | [C,B,]3 [F,A,]3 | (A,C)[F,C] [F,=B,]2 [F,B,] | [F,C]3- [F,C]2 z | %4
 [C,C]2 [C,G,] [C,C]2 [C,C] | [^C,B,]3 [D,A,]3 | [G,,G,]2 [G,,G,] [G,,=B,]2 [G,,B,] | %7
 [C,C]3- [C,C]2 z | [F,C]2 [F,C] [F,A,]2 [F,C] | [C,B,]3 [F,A,]3 | (A,C)[F,C] ([F,A,][G,B,])[A,C] | %11
 B,3- B,2 z | B,2 B, [B,C]2 [B,C] | [A,C]3 [F,C]3 | (B,A,)[G,D] [C,C]2 [C,B,] | %15
 [F,A,]3- [F,A,]2 z || [F,,F,]3 [C,,C,]3 | [F,,F,]3 [C,,C,]3 | [F,,F,]3 [F,,F,]3 | %19
 [F,,F,]3 [A,,A,]3 | D2 B, A,3 | G,2 C, F,3 | [G,,F,]2 [G,,F,] [G,,F,]2 [G,,F,] | [C,E,]6 | %24
 [F,,F,]3 [C,,C,]3 | [F,,F,]3 [C,,C,]3 | [A,,F,]3 ([F,,F,][G,,G,])[A,,A,] | %27
 ([B,,B,][F,,F,][D,,D,] [B,,,B,,]3) | D2 B, A,3 | G,2 C, F,3 | ([B,,B,][A,,^F,])[G,,G,] C,2 C, | %31
 (F,C,A,, F,,3) |] %32
V:4
 x6 | x6 | F,2 x4 | x6 | x6 | x6 | x6 | x6 | x6 | x6 | F,2 x4 | B,3- B,2 x | B,2 B, x3 | x6 | %14
 D2 x4 | x6 || x6 | x6 | x6 | x6 | x6 | x6 | x6 | x6 | x6 | x6 | x6 | x6 | x6 | x6 | x6 | x6 |] %32

